Adwaita++-Light/panel/16/exaile-play.svg

<svg height="16" width="16" xmlns="http://www.w3.org/2000/svg">
  <path d="m8 1c-3.878 0-7 3.122-7 7s3.122 7 7 7 7-3.122 7-7-3.122-7-7-7zm-1.6015625 4.0039062c.7876.1067001 4.6015625 2.5480938 4.6015625 2.9960938 0 .478-4.3392969 3.223375-4.7167969 2.984375-.3773-.238-.3773-5.73015 0-5.96875.0236-.0149.0627344-.0188187.1152344-.0117188z" fill="#444"/>
</svg>

<svg xmlns="http://www.w3.org/2000/svg" width="16" height="16" version="1.1">
 <defs>
  <style id="current-color-scheme" type="text/css">
   .ColorScheme-Text { color:#444444; } .ColorScheme-Highlight { color:#4285f4; }
  </style>
 </defs>
 <path style="fill:currentColor" class="ColorScheme-Text" d="M 8 1 C 4.122 1 1 4.122 1 8 C 1 11.878 4.122 15 8 15 C 11.878 15 15 11.878 15 8 C 15 4.122 11.878 1 8 1 z M 6.3984375 5.0039062 C 7.1860375 5.1106063 11 7.552 11 8 C 11 8.478 6.6607031 11.223375 6.2832031 10.984375 C 5.9059031 10.746375 5.9059031 5.254225 6.2832031 5.015625 C 6.3068031 5.000725 6.3459375 4.9968063 6.3984375 5.0039062 z"/>
</svg>
